Hatter-kde-dark/actions/24/labplot-3x-zoom.svg

<svg xmlns="http://www.w3.org/2000/svg" viewBox="0 0 24 24">
  <defs id="defs3051">
    <style type="text/css" id="current-color-scheme">
      .ColorScheme-Text {
        color:#dedede;
      }
      .ColorScheme-Highlight {
        color:#3daee9;
      }
      </style>
  </defs><g transform="translate(1,1)">
 <path 
     style="fill:currentColor;fill-opacity:1;stroke:none" 
     d="m 18.857694,12.027051 q 0,0.850202 -0.479757,1.396761 -0.473684,0.546559 -1.360324,0.728745 l 0,0.04858 q 1.062753,0.133603 1.58502,0.680162 0.52834,0.546559 0.52834,1.421053 0,1.26923 -0.880566,1.961538 -0.880567,0.686235 -2.526316,0.686235 -0.704454,0 -1.299596,-0.103239 -0.589068,-0.103239 -1.1417,-0.376518 l 0,-1.020243 q 0.564777,0.279352 1.208502,0.431174 0.643725,0.151822 1.244939,0.151822 2.246964,0 2.246964,-1.755061 0,-1.566802 -2.483806,-1.566802 l -0.862348,0 0,-0.929149 0.874494,0 q 1.044534,0 1.633603,-0.44332 0.589069,-0.449393 0.589069,-1.238867 0,-0.637651 -0.431174,-0.995951 -0.425101,-0.3583 -1.18421,-0.3583 -0.589069,0 -1.093118,0.163968 -0.497976,0.157895 -1.147773,0.582996 l -0.546559,-0.746964 q 0.546559,-0.431174 1.257085,-0.674089 0.716599,-0.2489876 1.518219,-0.2489876 1.299595,0 2.022267,0.5951416 0.728745,0.589069 0.728745,1.609312 z"
     class="ColorScheme-Highlight"
     />
 <path 
     style="fill:currentColor;fill-opacity:1;stroke:none" 
     d="M 3,3 3,5 4,5 4,4 5,4 5,3 3,3 Z m 5,0 0,1 2,0 0,-1 -2,0 z m 4,0 0,1 2,0 0,-1 -2,0 z m 5,0 0,1 1,0 0,1 1,0 0,-2 -2,0 z M 9,7 9,8 11.292969,8 8,11.292969 8.707031,12 12,8.7070312 12,11 13,11 13,7 12,7 9,7 Z M 3,8 3,10 4,10 4,8 3,8 Z m 0,5 0,6 6,0 0,-6 -6,0 z m 1,1 4,0 0,4 -4,0 0,-4 z"
     class="ColorScheme-Text"
     />
</g></svg>

<?xml version="1.0" encoding="UTF-8"?>
<svg viewBox="0 0 24 24" xmlns="http://www.w3.org/2000/svg">
 <defs id="defs3051">
  <style id="current-color-scheme" type="text/css">.ColorScheme-Text {
        color:#dedede;
      }
      .ColorScheme-Highlight {
        color:#3daee9;
      }</style>
 </defs>
 <g transform="translate(1,1)" fill="currentColor">
  <path class="ColorScheme-Highlight" d="m18.858 12.027q0 0.8502-0.47976 1.3968-0.47368 0.54656-1.3603 0.72874v0.04858q1.0628 0.1336 1.585 0.68016 0.52834 0.54656 0.52834 1.4211 0 1.2692-0.88057 1.9615-0.88057 0.68624-2.5263 0.68624-0.70445 0-1.2996-0.10324-0.58907-0.10324-1.1417-0.37652v-1.0202q0.56478 0.27935 1.2085 0.43117t1.2449 0.15182q2.247 0 2.247-1.7551 0-1.5668-2.4838-1.5668h-0.86235v-0.92915h0.87449q1.0445 0 1.6336-0.44332 0.58907-0.44939 0.58907-1.2389 0-0.63765-0.43117-0.99595-0.4251-0.3583-1.1842-0.3583-0.58907 0-1.0931 0.16397-0.49798 0.1579-1.1478 0.583l-0.54656-0.74696q0.54656-0.43117 1.2571-0.67409 0.7166-0.24899 1.5182-0.24899 1.2996 0 2.0223 0.59514 0.72874 0.58907 0.72874 1.6093z"/>
  <path class="ColorScheme-Text" d="m3 3v2h1v-1h1v-1h-2zm5 0v1h2v-1h-2zm4 0v1h2v-1h-2zm5 0v1h1v1h1v-2h-2zm-8 4v1h2.293l-3.293 3.293 0.70703 0.70703 3.293-3.293v2.293h1v-4h-1-3zm-6 1v2h1v-2h-1zm0 5v6h6v-6h-6zm1 1h4v4h-4v-4z"/>
 </g>
</svg>
